X:1
T:Title
%%score { ( 1 3 ) | ( 2 4 ) }
L:1/8
Q:1/4=208
M:4/2
K:F
V:1 treble nm="Grand Piano"
V:3 treble 
V:2 bass 
V:4 bass 
V:1
 F4 G4 A4 F4 | A4 [FB]4 [Ec]4 A4 | d4 B4 c4 A4 | B4 G4 A4 F4 | [GB]4 [FA]4 [DG]4 [DF]4 | %5
w: Martin~Madan * * *|||||
 E4 F4 G2 E2 C4 | [Ec]6 [EG]2 [FA]4 [EG]4 | [Ec]6 [EG]2 A4 F4 | [FB]4 [FA]4 [Fd]4 [Cc]2 [DB]2 | %9
w: ||||
 [CFA]4 [EG]3 [A,F] [A,F]8 | [B,DF]8 [A,CF]8 |] %11
w: ||
V:2
 [F,A,C]4 [E,G,C]4 [F,C]4 [A,C]4 | [F,CF]4 [D,F,]4 [C,G,]4[K:treble] [F,A,F]4 | %2
 [B,F]4 [B,DF]4 [A,CF]4 [A,CF]4 | [G,DF]4 [CE]4[K:bass] [F,CF]4 [F,A,]4 | %4
 [E,C]4 [F,C]4 [B,,B,]4 [=B,,G,]4 | [C,G,C]4 [D,F,=B,]4 [E,C]4 [E,G,]4 | %6
 [C,C]6 [C,C]2 [F,C]4 [C,C]4 | [C,C]6 [C,C]2 [F,CF]4 [F,A,]4 | [D,F,]4 [C,F,]4 [B,,F,]4 A,,2 B,,2 | %9
 z4 B,3 F, F,8 | B,,8 F,,8 |] %11
V:3
 x16 | x16 | x16 | x16 | x16 | x16 | x16 | x16 | z8 z4 F4 | x16 | x16 |] %11
V:4
 x16 | x12[K:treble] x4 | x16 | x8[K:bass] x8 | x16 | x16 | x16 | x16 | x16 | C,8 z8 | x16 |] %11

